webroot/img/new-desgin/social-media/ant-design_linkedin-outlined.svg

<svg width="81" height="80" viewBox="0 0 81 80" fill="none" xmlns="http://www.w3.org/2000/svg">
<g id="ant-design:linkedin-outlined">
<path id="Vector" d="M63.3811 12.502H17.2224C14.7818 12.502 12.8018 14.482 12.8018 16.9226V63.0813C12.8018 65.522 14.7818 67.502 17.2224 67.502H63.3811C65.8218 67.502 67.8018 65.522 67.8018 63.0813V16.9226C67.8018 14.482 65.8218 12.502 63.3811 12.502ZM63.3811 63.102C32.5949 63.0951 17.2018 63.0882 17.2018 63.0813C17.2086 32.2951 17.2155 16.902 17.2224 16.902C48.0086 16.9088 63.4018 16.9157 63.4018 16.9226C63.3949 47.7088 63.388 63.102 63.3811 63.102ZM20.9555 33.1201H29.1161V59.3688H20.9555V33.1201ZM25.0393 29.5313C27.6449 29.5313 29.7693 27.4138 29.7693 24.8013C29.7693 24.1802 29.6469 23.5651 29.4092 22.9912C29.1715 22.4174 28.8231 21.8959 28.3839 21.4567C27.9447 21.0175 27.4232 20.6691 26.8493 20.4314C26.2755 20.1937 25.6604 20.0713 25.0393 20.0713C24.4181 20.0713 23.803 20.1937 23.2292 20.4314C22.6553 20.6691 22.1339 21.0175 21.6946 21.4567C21.2554 21.8959 20.907 22.4174 20.6693 22.9912C20.4316 23.5651 20.3093 24.1802 20.3093 24.8013C20.3024 27.4138 22.4199 29.5313 25.0393 29.5313ZM42.3849 46.382C42.3849 42.9582 43.038 39.6445 47.2799 39.6445C51.4599 39.6445 51.5218 43.5563 51.5218 46.602V59.3688H59.6755V44.9726C59.6755 37.9051 58.1493 32.467 49.8924 32.467C45.9255 32.467 43.2649 34.6463 42.1718 36.7088H42.0618V33.1201H34.2311V59.3688H42.3849V46.382Z" fill="url(#paint0_linear_421_9354)"/>
</g>
<defs>
<linearGradient id="paint0_linear_421_9354" x1="17.9532" y1="17.526" x2="67.4605" y2="79.7422" gradientUnits="userSpaceOnUse">
<stop stop-color="#007BC4"/>
<stop offset="1" stop-color="#0B4C97"/>
</linearGradient>
</defs>
</svg>

<svg xmlns="http://www.w3.org/2000/svg" width="81" height="80" fill="none"><path fill="url(#a)" d="M63.381 12.502H17.222c-2.44 0-4.42 1.98-4.42 4.42v46.16c0 2.44 1.98 4.42 4.42 4.42h46.16c2.44 0 4.42-1.98 4.42-4.42v-46.16c0-2.44-1.98-4.42-4.42-4.42Zm0 50.6c-30.786-.007-46.18-.014-46.18-.02.008-30.787.014-46.18.021-46.18 30.787.007 46.18.014 46.18.02-.007 30.787-.014 46.18-.02 46.18ZM20.956 33.12h8.16V59.37h-8.16V33.12Zm4.083-3.589a4.734 4.734 0 0 0 4.37-6.54 4.73 4.73 0 0 0-9.1 1.81 4.72 4.72 0 0 0 4.73 4.73Zm17.346 16.851c0-3.424.653-6.737 4.895-6.737 4.18 0 4.242 3.911 4.242 6.957v12.767h8.154V44.973c0-7.068-1.527-12.506-9.784-12.506-3.967 0-6.627 2.18-7.72 4.242h-.11V33.12h-7.83V59.37h8.153V46.382Z"/><defs><linearGradient id="a" x1="17.953" x2="67.46" y1="17.526" y2="79.742" gradientUnits="userSpaceOnUse"><stop stop-color="#007BC4"/><stop offset="1" stop-color="#0B4C97"/></linearGradient></defs></svg>
